icons/modern/guitar.svg

<svg width="32" height="32" viewBox="0 0 32 32" fill="none" xmlns="http://www.w3.org/2000/svg">
<g filter="url(#filter0_ii_18_18660)">
<path d="M11.6875 13.0625C11.9466 11.5675 12.9845 10.2811 14.044 9.43302C14.5004 9.06769 15.1442 9.12605 15.5929 9.50087C16.3803 10.1587 16.2161 11.504 15.5196 12.2574C15.3689 12.4205 15.2201 12.6 15.0781 12.7969C13.7031 14.7031 15.3594 16.6094 16.5781 17.1719C17.5312 17.7578 18.8125 17.5 19.3125 17.375C19.8125 17.25 21.4687 16.8125 21.75 18C22.0312 19.1875 21.4375 20.1875 20.125 20.4375C18.8125 20.6875 17.5625 20.5313 17.0312 23.25C16.5 25.9688 15.3125 28.375 12.5625 29.4375C9.81247 30.5 6.65622 30.1875 4.31247 27.8438C2.46872 25.875 1.46873 21.9375 3.37498 18.8125C5.49997 15.7188 8.15623 15.5 9.03123 15.3438C9.90623 15.1875 11.2344 15.2188 11.6875 13.0625Z" fill="url(#paint0_linear_18_18660)"/>
</g>
<path d="M7.20307 18.1876C8.14587 16.8987 10.1227 16.5944 11.0612 16.633C11.1388 16.6362 11.212 16.5973 11.2517 16.5306C11.6925 15.7891 12.148 15.3157 12.7031 15.2188C13.0862 15.1827 13.7406 15.1719 14.2031 16.0469C14.6656 16.9219 15.3854 17.7865 15.6874 18.1094C17.2096 18.7453 18.3067 18.5681 19.0875 18.3604C19.4282 18.2697 19.7735 18.4659 19.8599 18.8078C19.9572 19.1925 19.6808 19.5756 19.2955 19.6705C18.6014 19.8413 17.6401 20.2238 16.7656 21.0469C15.1718 22.5469 15.9062 24.2969 14.6406 26.0782C13.8769 27.153 11.7343 29.1719 10.4062 28.0782C9.77497 27.5584 9.85239 26.3184 10.1229 25.4222C10.2508 24.9987 10.1973 24.5146 9.89252 24.194L7.40619 21.5782C6.94786 21.0001 6.21557 19.5376 7.20307 18.1876Z" fill="url(#paint1_linear_18_18660)"/>
<g filter="url(#filter1_ii_18_18660)">
<path d="M23.7636 6.75195L25.6152 8.60352L15.6734 18.5453C15.5172 18.7015 15.264 18.7015 15.1077 18.5453L13.8219 17.2594C13.6657 17.1032 13.6657 16.8499 13.8219 16.6937L23.7636 6.75195Z" fill="url(#paint2_linear_18_18660)"/>
<path d="M23.7636 6.75195L25.6152 8.60352L15.6734 18.5453C15.5172 18.7015 15.264 18.7015 15.1077 18.5453L13.8219 17.2594C13.6657 17.1032 13.6657 16.8499 13.8219 16.6937L23.7636 6.75195Z" fill="url(#paint3_linear_18_18660)"/>
</g>
<g filter="url(#filter2_ii_18_18660)">
<path d="M28.9219 6.74219C29.7255 6.74219 30.377 5.98135 30.377 5.17773C30.377 4.37411 29.7255 3.72266 28.9219 3.72266C28.687 3.72266 28.4651 3.77832 28.2687 3.87717L24.2073 5.54354C23.5494 5.81346 23.3755 6.66447 23.8748 7.17082L25.4506 8.76889C25.8066 9.13 26.4367 9.09563 26.7085 8.66749C26.9705 8.25483 27.2788 7.67706 27.5665 6.85643C27.631 6.67248 27.8545 6.58283 28.0428 6.63306C28.3358 6.71121 28.6844 6.74219 28.9219 6.74219Z" fill="#CD338B"/>
<path d="M28.9219 6.74219C29.7255 6.74219 30.377 5.98135 30.377 5.17773C30.377 4.37411 29.7255 3.72266 28.9219 3.72266C28.687 3.72266 28.4651 3.77832 28.2687 3.87717L24.2073 5.54354C23.5494 5.81346 23.3755 6.66447 23.8748 7.17082L25.4506 8.76889C25.8066 9.13 26.4367 9.09563 26.7085 8.66749C26.9705 8.25483 27.2788 7.67706 27.5665 6.85643C27.631 6.67248 27.8545 6.58283 28.0428 6.63306C28.3358 6.71121 28.6844 6.74219 28.9219 6.74219Z" fill="url(#paint4_radial_18_18660)"/>
</g>
<g filter="url(#filter3_i_18_18660)">
<path d="M11.8092 18.1915C12.0113 17.9917 12.337 17.9935 12.5368 18.1956L14.136 19.8129C14.3357 20.015 14.3339 20.3407 14.1319 20.5405C13.9298 20.7403 13.6041 20.7384 13.4043 20.5364L11.8051 18.919C11.6054 18.717 11.6072 18.3913 11.8092 18.1915Z" fill="url(#paint5_linear_18_18660)"/>
</g>
<g filter="url(#filter4_i_18_18660)">
<path d="M9.74674 20.254C9.94878 20.0542 10.2745 20.056 10.4743 20.2581L12.0735 21.8754C12.2732 22.0775 12.2714 22.4032 12.0694 22.603C11.8673 22.8028 11.5416 22.8009 11.3418 22.5989L9.74263 20.9815C9.54286 20.7795 9.54469 20.4538 9.74674 20.254Z" fill="url(#paint6_linear_18_18660)"/>
</g>
<g filter="url(#filter5_d_18_18660)">
<path d="M6.79857 22.7836C6.99493 22.5895 7.31151 22.5912 7.50567 22.7876L9.53247 24.8374C9.72663 25.0338 9.72484 25.3504 9.52848 25.5445L8.84881 26.2166C8.65245 26.4107 8.33587 26.4089 8.14172 26.2126L6.11492 24.1627C5.92076 23.9664 5.92255 23.6498 6.11891 23.4556L6.79857 22.7836Z" fill="url(#paint7_linear_18_18660)"/>
<path d="M6.79857 22.7836C6.99493 22.5895 7.31151 22.5912 7.50567 22.7876L9.53247 24.8374C9.72663 25.0338 9.72484 25.3504 9.52848 25.5445L8.84881 26.2166C8.65245 26.4107 8.33587 26.4089 8.14172 26.2126L6.11492 24.1627C5.92076 23.9664 5.92255 23.6498 6.11891 23.4556L6.79857 22.7836Z" fill="url(#paint8_linear_18_18660)"/>
</g>
<circle cx="24.4102" cy="4.94531" r="0.574219" fill="url(#paint9_radial_18_18660)"/>
<circle cx="26.1055" cy="4.24219" r="0.574219" fill="url(#paint10_radial_18_18660)"/>
<circle cx="27.8945" cy="3.5" r="0.574219" fill="url(#paint11_radial_18_18660)"/>
<defs>
<filter id="filter0_ii_18_18660" x="2.09766" y="9.18738" width="20.0208" height="21.1325" filterUnits="userSpaceOnUse" color-interpolation-filters="sRGB">
<feFlood flood-opacity="0" result="BackgroundImageFix"/>
<feBlend mode="normal" in="SourceGraphic" in2="BackgroundImageFix" result="shape"/>
<feColorMatrix in="SourceAlpha" type="matrix" values="0 0 0 0 0 0 0 0 0 0 0 0 0 0 0 0 0 0 127 0" result="hardAlpha"/>
<feOffset dx="-0.25" dy="0.25"/>
<feGaussianBlur stdDeviation="0.125"/>
<feComposite in2="hardAlpha" operator="arithmetic" k2="-1" k3="1"/>
<feColorMatrix type="matrix" values="0 0 0 0 0.890196 0 0 0 0 0.368627 0 0 0 0 0.564706 0 0 0 1 0"/>
<feBlend mode="normal" in2="shape" result="effect1_innerShadow_18_18660"/>
<feColorMatrix in="SourceAlpha" type="matrix" values="0 0 0 0 0 0 0 0 0 0 0 0 0 0 0 0 0 0 127 0" result="hardAlpha"/>
<feOffset dx="0.3" dy="0.3"/>
<feGaussianBlur stdDeviation="0.15"/>
<feComposite in2="hardAlpha" operator="arithmetic" k2="-1" k3="1"/>
<feColorMatrix type="matrix" values="0 0 0 0 0.815686 0 0 0 0 0.156863 0 0 0 0 0.231373 0 0 0 1 0"/>
<feBlend mode="normal" in2="effect1_innerShadow_18_18660" result="effect2_innerShadow_18_18660"/>
</filter>
<filter id="filter1_ii_18_18660" x="13.4547" y="6.75195" width="12.4105" height="11.9105" filterUnits="userSpaceOnUse" color-interpolation-filters="sRGB">
<feFlood flood-opacity="0" result="BackgroundImageFix"/>
<feBlend mode="normal" in="SourceGraphic" in2="BackgroundImageFix" result="shape"/>
<feColorMatrix in="SourceAlpha" type="matrix" values="0 0 0 0 0 0 0 0 0 0 0 0 0 0 0 0 0 0 127 0" result="hardAlpha"/>
<feOffset dx="0.4"/>
<feGaussianBlur stdDeviation="0.125"/>
<feComposite in2="hardAlpha" operator="arithmetic" k2="-1" k3="1"/>
<feColorMatrix type="matrix" values="0 0 0 0 0.329412 0 0 0 0 0.258824 0 0 0 0 0.513726 0 0 0 1 0"/>
<feBlend mode="normal" in2="shape" result="effect1_innerShadow_18_18660"/>
<feColorMatrix in="SourceAlpha" type="matrix" values="0 0 0 0 0 0 0 0 0 0 0 0 0 0 0 0 0 0 127 0" result="hardAlpha"/>
<feOffset dx="-0.4"/>
<feGaussianBlur stdDeviation="0.125"/>
<feComposite in2="hardAlpha" operator="arithmetic" k2="-1" k3="1"/>
<feColorMatrix type="matrix" values="0 0 0 0 0.384314 0 0 0 0 0.309804 0 0 0 0 0.568627 0 0 0 1 0"/>
<feBlend mode="normal" in2="effect1_innerShadow_18_18660" result="effect2_innerShadow_18_18660"/>
</filter>
<filter id="filter2_ii_18_18660" x="23.4365" y="3.57266" width="7.09041" height="5.5937" filterUnits="userSpaceOnUse" color-interpolation-filters="sRGB">
<feFlood flood-opacity="0" result="BackgroundImageFix"/>
<feBlend mode="normal" in="SourceGraphic" in2="BackgroundImageFix" result="shape"/>
<feColorMatrix in="SourceAlpha" type="matrix" values="0 0 0 0 0 0 0 0 0 0 0 0 0 0 0 0 0 0 127 0" result="hardAlpha"/>
<feOffset dx="0.15" dy="0.15"/>
<feGaussianBlur stdDeviation="0.15"/>
<feComposite in2="hardAlpha" operator="arithmetic" k2="-1" k3="1"/>
<feColorMatrix type="matrix" values="0 0 0 0 0.788235 0 0 0 0 0.196078 0 0 0 0 0.478431 0 0 0 1 0"/>
<feBlend mode="normal" in2="shape" result="effect1_innerShadow_18_18660"/>
<feColorMatrix in="SourceAlpha" type="matrix" values="0 0 0 0 0 0 0 0 0 0 0 0 0 0 0 0 0 0 127 0" result="hardAlpha"/>
<feOffset dx="-0.15" dy="-0.15"/>
<feGaussianBlur stdDeviation="0.15"/>
<feComposite in2="hardAlpha" operator="arithmetic" k2="-1" k3="1"/>
<feColorMatrix type="matrix" values="0 0 0 0 0.788235 0 0 0 0 0.196078 0 0 0 0 0.478431 0 0 0 1 0"/>
<feBlend mode="normal" in2="effect1_innerShadow_18_18660" result="effect2_innerShadow_18_18660"/>
</filter>
<filter id="filter3_i_18_18660" x="11.6565" y="17.9428" width="2.72817" height="2.74624" filterUnits="userSpaceOnUse" color-interpolation-filters="sRGB">
<feFlood flood-opacity="0" result="BackgroundImageFix"/>
<feBlend mode="normal" in="SourceGraphic" in2="BackgroundImageFix" result="shape"/>
<feColorMatrix in="SourceAlpha" type="matrix" values="0 0 0 0 0 0 0 0 0 0 0 0 0 0 0 0 0 0 127 0" result="hardAlpha"/>
<feOffset dx="0.1" dy="-0.1"/>
<feGaussianBlur stdDeviation="0.05"/>
<feComposite in2="hardAlpha" operator="arithmetic" k2="-1" k3="1"/>
<feColorMatrix type="matrix" values="0 0 0 0 0.592157 0 0 0 0 0.517647 0 0 0 0 0.65098 0 0 0 1 0"/>
<feBlend mode="normal" in2="shape" result="effect1_innerShadow_18_18660"/>
</filter>
<filter id="filter4_i_18_18660" x="9.59399" y="20.0053" width="2.72817" height="2.74624" filterUnits="userSpaceOnUse" color-interpolation-filters="sRGB">
<feFlood flood-opacity="0" result="BackgroundImageFix"/>
<feBlend mode="normal" in="SourceGraphic" in2="BackgroundImageFix" result="shape"/>
<feColorMatrix in="SourceAlpha" type="matrix" values="0 0 0 0 0 0 0 0 0 0 0 0 0 0 0 0 0 0 127 0" result="hardAlpha"/>
<feOffset dx="0.1" dy="-0.1"/>
<feGaussianBlur stdDeviation="0.05"/>
<feComposite in2="hardAlpha" operator="arithmetic" k2="-1" k3="1"/>
<feColorMatrix type="matrix" values="0 0 0 0 0.592157 0 0 0 0 0.517647 0 0 0 0 0.65098 0 0 0 1 0"/>
<feBlend mode="normal" in2="shape" result="effect1_innerShadow_18_18660"/>
</filter>
<filter id="filter5_d_18_18660" x="5.52046" y="22.4892" width="4.30642" height="4.3218" filterUnits="userSpaceOnUse" color-interpolation-filters="sRGB">
<feFlood flood-opacity="0" result="BackgroundImageFix"/>
<feColorMatrix in="SourceAlpha" type="matrix" values="0 0 0 0 0 0 0 0 0 0 0 0 0 0 0 0 0 0 127 0" result="hardAlpha"/>
<feOffset dx="-0.15" dy="0.15"/>
<feGaussianBlur stdDeviation="0.15"/>
<feComposite in2="hardAlpha" operator="out"/>
<feColorMatrix type="matrix" values="0 0 0 0 0.8 0 0 0 0 0.141176 0 0 0 0 0.282353 0 0 0 1 0"/>
<feBlend mode="normal" in2="BackgroundImageFix" result="effect1_dropShadow_18_18660"/>
<feBlend mode="normal" in="SourceGraphic" in2="effect1_dropShadow_18_18660" result="shape"/>
</filter>
<linearGradient id="paint0_linear_18_18660" x1="9.56248" y1="24.5" x2="20.5625" y2="23.625" gradientUnits="userSpaceOnUse">
<stop stop-color="#D53556"/>
<stop offset="1" stop-color="#D83391"/>
</linearGradient>
<linearGradient id="paint1_linear_18_18660" x1="5.84369" y1="19.0938" x2="12.4999" y2="21.4376" gradientUnits="userSpaceOnUse">
<stop stop-color="#FFEBFF"/>
<stop offset="1" stop-color="#FFE8FF"/>
</linearGradient>
<linearGradient id="paint2_linear_18_18660" x1="24.3437" y1="8.0625" x2="14.2187" y2="17.9375" gradientUnits="userSpaceOnUse">
<stop stop-color="#635C95"/>
<stop offset="1" stop-color="#605193"/>
</linearGradient>
<linearGradient id="paint3_linear_18_18660" x1="24.9843" y1="8.01563" x2="24.4531" y2="8.53125" gradientUnits="userSpaceOnUse">
<stop offset="0.220312" stop-color="#57337D"/>
<stop offset="1" stop-color="#645D97" stop-opacity="0"/>
</linearGradient>
<radialGradient id="paint4_radial_18_18660" cx="0" cy="0" r="1" gradientUnits="userSpaceOnUse" gradientTransform="translate(25.6563 6.36951) rotate(-19.0125) scale(4.87534 2.94423)">
<stop offset="0.903242" stop-color="#E663A0" stop-opacity="0"/>
<stop offset="1" stop-color="#E663A0"/>
</radialGradient>
<linearGradient id="paint5_linear_18_18660" x1="11.8985" y1="18.4844" x2="13.8438" y2="20.3907" gradientUnits="userSpaceOnUse">
<stop stop-color="#9C8BAA"/>
<stop offset="1" stop-color="#A08EAF"/>
</linearGradient>
<linearGradient id="paint6_linear_18_18660" x1="9.83597" y1="20.5469" x2="11.7813" y2="22.4532" gradientUnits="userSpaceOnUse">
<stop stop-color="#9C8BAA"/>
<stop offset="1" stop-color="#A08EAF"/>
</linearGradient>
<linearGradient id="paint7_linear_18_18660" x1="8.68746" y1="23.6875" x2="7.12496" y2="25.3438" gradientUnits="userSpaceOnUse">
<stop stop-color="#A394B1"/>
<stop offset="1" stop-color="#9178A2"/>
</linearGradient>
<linearGradient id="paint8_linear_18_18660" x1="8.51558" y1="23.5782" x2="8.15621" y2="23.9688" gradientUnits="userSpaceOnUse">
<stop stop-color="#AD9FB8"/>
<stop offset="1" stop-color="#AD9FB8" stop-opacity="0"/>
</linearGradient>
<radialGradient id="paint9_radial_18_18660" cx="0" cy="0" r="1" gradientUnits="userSpaceOnUse" gradientTransform="translate(24.7812 4.84375) rotate(157.319) scale(0.567308)">
<stop offset="0.194064" stop-color="#C3B9C9"/>
<stop offset="1" stop-color="#B7A7C0"/>
</radialGradient>
<radialGradient id="paint10_radial_18_18660" cx="0" cy="0" r="1" gradientUnits="userSpaceOnUse" gradientTransform="translate(26.4766 4.14062) rotate(157.319) scale(0.567308)">
<stop offset="0.194064" stop-color="#C3B9C9"/>
<stop offset="1" stop-color="#B7A7C0"/>
</radialGradient>
<radialGradient id="paint11_radial_18_18660" cx="0" cy="0" r="1" gradientUnits="userSpaceOnUse" gradientTransform="translate(28.2656 3.39844) rotate(157.319) scale(0.567308)">
<stop offset="0.194064" stop-color="#C3B9C9"/>
<stop offset="1" stop-color="#B7A7C0"/>
</radialGradient>
</defs>
</svg>

<svg width="32" height="32" fill="none" xmlns="http://www.w3.org/2000/svg"><g filter="url(#a)"><path d="M11.688 13.063c.259-1.495 1.296-2.782 2.356-3.63.456-.365 1.1-.307 1.549.068.787.658.623 2.003-.073 2.756-.151.164-.3.343-.442.54-1.375 1.906.281 3.812 1.5 4.375.953.586 2.235.328 2.735.203s2.156-.563 2.437.625c.281 1.188-.313 2.188-1.625 2.438-1.313.25-2.563.093-3.094 2.812-.531 2.719-1.718 5.125-4.468 6.188-2.75 1.062-5.907.75-8.25-1.594-1.844-1.969-2.844-5.907-.938-9.032C5.5 15.72 8.156 15.5 9.031 15.345c.875-.156 2.203-.125 2.656-2.281Z" fill="url(#b)"/></g><path d="M7.203 18.188c.943-1.29 2.92-1.594 3.858-1.555a.211.211 0 0 0 .19-.102c.442-.742.897-1.215 1.452-1.312.383-.036 1.038-.047 1.5.828.463.875 1.182 1.74 1.484 2.062 1.523.636 2.62.46 3.4.251.341-.09.686.106.773.448.097.384-.18.768-.564.863a5.689 5.689 0 0 0-2.53 1.376c-1.594 1.5-.86 3.25-2.125 5.031-.764 1.075-2.907 3.094-4.235 2-.631-.52-.554-1.76-.283-2.656.128-.423.074-.907-.23-1.228l-2.487-2.616c-.458-.578-1.19-2.04-.203-3.39Z" fill="url(#c)"/><g filter="url(#d)"><path d="m23.764 6.752 1.851 1.852-9.942 9.941a.4.4 0 0 1-.565 0l-1.286-1.286a.4.4 0 0 1 0-.565l9.942-9.942Z" fill="url(#e)"/><path d="m23.764 6.752 1.851 1.852-9.942 9.941a.4.4 0 0 1-.565 0l-1.286-1.286a.4.4 0 0 1 0-.565l9.942-9.942Z" fill="url(#f)"/></g><g filter="url(#g)"><path d="M28.922 6.742c.803 0 1.455-.76 1.455-1.564a1.455 1.455 0 0 0-2.108-1.3l-4.062 1.666a1 1 0 0 0-.332 1.627l1.576 1.598c.356.361.986.327 1.258-.102.262-.412.57-.99.858-1.81.064-.185.288-.274.476-.224.293.078.641.11.879.11Z" fill="#CD338B"/><path d="M28.922 6.742c.803 0 1.455-.76 1.455-1.564a1.455 1.455 0 0 0-2.108-1.3l-4.062 1.666a1 1 0 0 0-.332 1.627l1.576 1.598c.356.361.986.327 1.258-.102.262-.412.57-.99.858-1.81.064-.185.288-.274.476-.224.293.078.641.11.879.11Z" fill="url(#h)"/></g><g filter="url(#i)"><path d="M11.81 18.192a.514.514 0 0 1 .727.004l1.599 1.617a.515.515 0 0 1-.732.723l-1.599-1.617a.515.515 0 0 1 .004-.727Z" fill="url(#j)"/></g><g filter="url(#k)"><path d="M9.747 20.254a.514.514 0 0 1 .727.004l1.6 1.617a.515.515 0 0 1-.732.724l-1.6-1.617a.514.514 0 0 1 .005-.728Z" fill="url(#l)"/></g><g filter="url(#m)"><path d="M6.799 22.784a.5.5 0 0 1 .707.004l2.026 2.05a.5.5 0 0 1-.004.706l-.68.673a.5.5 0 0 1-.706-.004l-2.027-2.05a.5.5 0 0 1 .004-.707l.68-.672Z" fill="url(#n)"/><path d="M6.799 22.784a.5.5 0 0 1 .707.004l2.026 2.05a.5.5 0 0 1-.004.706l-.68.673a.5.5 0 0 1-.706-.004l-2.027-2.05a.5.5 0 0 1 .004-.707l.68-.672Z" fill="url(#o)"/></g><circle cx="24.41" cy="4.945" r=".574" fill="url(#p)"/><circle cx="26.105" cy="4.242" r=".574" fill="url(#q)"/><circle cx="27.895" cy="3.5" r=".574" fill="url(#r)"/><defs><linearGradient id="b" x1="9.562" y1="24.5" x2="20.563" y2="23.625" gradientUnits="userSpaceOnUse"><stop stop-color="#D53556"/><stop offset="1" stop-color="#D83391"/></linearGradient><linearGradient id="c" x1="5.844" y1="19.094" x2="12.5" y2="21.438" gradientUnits="userSpaceOnUse"><stop stop-color="#FFEBFF"/><stop offset="1" stop-color="#FFE8FF"/></linearGradient><linearGradient id="e" x1="24.344" y1="8.063" x2="14.219" y2="17.938" gradientUnits="userSpaceOnUse"><stop stop-color="#635C95"/><stop offset="1" stop-color="#605193"/></linearGradient><linearGradient id="f" x1="24.984" y1="8.016" x2="24.453" y2="8.531" gradientUnits="userSpaceOnUse"><stop offset=".22" stop-color="#57337D"/><stop offset="1" stop-color="#645D97" stop-opacity="0"/></linearGradient><linearGradient id="j" x1="11.899" y1="18.484" x2="13.844" y2="20.391" gradientUnits="userSpaceOnUse"><stop stop-color="#9C8BAA"/><stop offset="1" stop-color="#A08EAF"/></linearGradient><linearGradient id="l" x1="9.836" y1="20.547" x2="11.781" y2="22.453" gradientUnits="userSpaceOnUse"><stop stop-color="#9C8BAA"/><stop offset="1" stop-color="#A08EAF"/></linearGradient><linearGradient id="n" x1="8.687" y1="23.688" x2="7.125" y2="25.344" gradientUnits="userSpaceOnUse"><stop stop-color="#A394B1"/><stop offset="1" stop-color="#9178A2"/></linearGradient><linearGradient id="o" x1="8.516" y1="23.578" x2="8.156" y2="23.969" gradientUnits="userSpaceOnUse"><stop stop-color="#AD9FB8"/><stop offset="1" stop-color="#AD9FB8" stop-opacity="0"/></linearGradient><filter id="a" x="2.098" y="9.187" width="20.021" height="21.133" filterUnits="userSpaceOnUse" color-interpolation-filters="sRGB"><feFlood flood-opacity="0" result="BackgroundImageFix"/><feBlend in="SourceGraphic" in2="BackgroundImageFix" result="shape"/><feColorMatrix in="SourceAlpha" values="0 0 0 0 0 0 0 0 0 0 0 0 0 0 0 0 0 0 127 0" result="hardAlpha"/><feOffset dx="-.25" dy=".25"/><feGaussianBlur stdDeviation=".125"/><feComposite in2="hardAlpha" operator="arithmetic" k2="-1" k3="1"/><feColorMatrix values="0 0 0 0 0.890196 0 0 0 0 0.368627 0 0 0 0 0.564706 0 0 0 1 0"/><feBlend in2="shape" result="effect1_innerShadow_18_18660"/><feColorMatrix in="SourceAlpha" values="0 0 0 0 0 0 0 0 0 0 0 0 0 0 0 0 0 0 127 0" result="hardAlpha"/><feOffset dx=".3" dy=".3"/><feGaussianBlur stdDeviation=".15"/><feComposite in2="hardAlpha" operator="arithmetic" k2="-1" k3="1"/><feColorMatrix values="0 0 0 0 0.815686 0 0 0 0 0.156863 0 0 0 0 0.231373 0 0 0 1 0"/><feBlend in2="effect1_innerShadow_18_18660" result="effect2_innerShadow_18_18660"/></filter><filter id="d" x="13.455" y="6.752" width="12.411" height="11.911" filterUnits="userSpaceOnUse" color-interpolation-filters="sRGB"><feFlood flood-opacity="0" result="BackgroundImageFix"/><feBlend in="SourceGraphic" in2="BackgroundImageFix" result="shape"/><feColorMatrix in="SourceAlpha" values="0 0 0 0 0 0 0 0 0 0 0 0 0 0 0 0 0 0 127 0" result="hardAlpha"/><feOffset dx=".4"/><feGaussianBlur stdDeviation=".125"/><feComposite in2="hardAlpha" operator="arithmetic" k2="-1" k3="1"/><feColorMatrix values="0 0 0 0 0.329412 0 0 0 0 0.258824 0 0 0 0 0.513726 0 0 0 1 0"/><feBlend in2="shape" result="effect1_innerShadow_18_18660"/><feColorMatrix in="SourceAlpha" values="0 0 0 0 0 0 0 0 0 0 0 0 0 0 0 0 0 0 127 0" result="hardAlpha"/><feOffset dx="-.4"/><feGaussianBlur stdDeviation=".125"/><feComposite in2="hardAlpha" operator="arithmetic" k2="-1" k3="1"/><feColorMatrix values="0 0 0 0 0.384314 0 0 0 0 0.309804 0 0 0 0 0.568627 0 0 0 1 0"/><feBlend in2="effect1_innerShadow_18_18660" result="effect2_innerShadow_18_18660"/></filter><filter id="g" x="23.436" y="3.573" width="7.09" height="5.594" filterUnits="userSpaceOnUse" color-interpolation-filters="sRGB"><feFlood flood-opacity="0" result="BackgroundImageFix"/><feBlend in="SourceGraphic" in2="BackgroundImageFix" result="shape"/><feColorMatrix in="SourceAlpha" values="0 0 0 0 0 0 0 0 0 0 0 0 0 0 0 0 0 0 127 0" result="hardAlpha"/><feOffset dx=".15" dy=".15"/><feGaussianBlur stdDeviation=".15"/><feComposite in2="hardAlpha" operator="arithmetic" k2="-1" k3="1"/><feColorMatrix values="0 0 0 0 0.788235 0 0 0 0 0.196078 0 0 0 0 0.478431 0 0 0 1 0"/><feBlend in2="shape" result="effect1_innerShadow_18_18660"/><feColorMatrix in="SourceAlpha" values="0 0 0 0 0 0 0 0 0 0 0 0 0 0 0 0 0 0 127 0" result="hardAlpha"/><feOffset dx="-.15" dy="-.15"/><feGaussianBlur stdDeviation=".15"/><feComposite in2="hardAlpha" operator="arithmetic" k2="-1" k3="1"/><feColorMatrix values="0 0 0 0 0.788235 0 0 0 0 0.196078 0 0 0 0 0.478431 0 0 0 1 0"/><feBlend in2="effect1_innerShadow_18_18660" result="effect2_innerShadow_18_18660"/></filter><filter id="i" x="11.656" y="17.943" width="2.728" height="2.746" filterUnits="userSpaceOnUse" color-interpolation-filters="sRGB"><feFlood flood-opacity="0" result="BackgroundImageFix"/><feBlend in="SourceGraphic" in2="BackgroundImageFix" result="shape"/><feColorMatrix in="SourceAlpha" values="0 0 0 0 0 0 0 0 0 0 0 0 0 0 0 0 0 0 127 0" result="hardAlpha"/><feOffset dx=".1" dy="-.1"/><feGaussianBlur stdDeviation=".05"/><feComposite in2="hardAlpha" operator="arithmetic" k2="-1" k3="1"/><feColorMatrix values="0 0 0 0 0.592157 0 0 0 0 0.517647 0 0 0 0 0.65098 0 0 0 1 0"/><feBlend in2="shape" result="effect1_innerShadow_18_18660"/></filter><filter id="k" x="9.594" y="20.005" width="2.728" height="2.746" filterUnits="userSpaceOnUse" color-interpolation-filters="sRGB"><feFlood flood-opacity="0" result="BackgroundImageFix"/><feBlend in="SourceGraphic" in2="BackgroundImageFix" result="shape"/><feColorMatrix in="SourceAlpha" values="0 0 0 0 0 0 0 0 0 0 0 0 0 0 0 0 0 0 127 0" result="hardAlpha"/><feOffset dx=".1" dy="-.1"/><feGaussianBlur stdDeviation=".05"/><feComposite in2="hardAlpha" operator="arithmetic" k2="-1" k3="1"/><feColorMatrix values="0 0 0 0 0.592157 0 0 0 0 0.517647 0 0 0 0 0.65098 0 0 0 1 0"/><feBlend in2="shape" result="effect1_innerShadow_18_18660"/></filter><filter id="m" x="5.52" y="22.489" width="4.306" height="4.322" filterUnits="userSpaceOnUse" color-interpolation-filters="sRGB"><feFlood flood-opacity="0" result="BackgroundImageFix"/><feColorMatrix in="SourceAlpha" values="0 0 0 0 0 0 0 0 0 0 0 0 0 0 0 0 0 0 127 0" result="hardAlpha"/><feOffset dx="-.15" dy=".15"/><feGaussianBlur stdDeviation=".15"/><feComposite in2="hardAlpha" operator="out"/><feColorMatrix values="0 0 0 0 0.8 0 0 0 0 0.141176 0 0 0 0 0.282353 0 0 0 1 0"/><feBlend in2="BackgroundImageFix" result="effect1_dropShadow_18_18660"/><feBlend in="SourceGraphic" in2="effect1_dropShadow_18_18660" result="shape"/></filter><radialGradient id="h" cx="0" cy="0" r="1" gradientUnits="userSpaceOnUse" gradientTransform="matrix(4.60938 -1.58826 .95915 2.78361 25.656 6.37)"><stop offset=".903" stop-color="#E663A0" stop-opacity="0"/><stop offset="1" stop-color="#E663A0"/></radialGradient><radialGradient id="p" cx="0" cy="0" r="1" gradientUnits="userSpaceOnUse" gradientTransform="rotate(157.319 11.905 4.907) scale(.56731)"><stop offset=".194" stop-color="#C3B9C9"/><stop offset="1" stop-color="#B7A7C0"/></radialGradient><radialGradient id="q" cx="0" cy="0" r="1" gradientUnits="userSpaceOnUse" gradientTransform="rotate(157.319 12.823 4.725) scale(.56731)"><stop offset=".194" stop-color="#C3B9C9"/><stop offset="1" stop-color="#B7A7C0"/></radialGradient><radialGradient id="r" cx="0" cy="0" r="1" gradientUnits="userSpaceOnUse" gradientTransform="rotate(157.319 13.792 4.534) scale(.56731)"><stop offset=".194" stop-color="#C3B9C9"/><stop offset="1" stop-color="#B7A7C0"/></radialGradient></defs></svg>
